flaticon/household/chest-of-drawers-3.svg

<svg xmlns="http://www.w3.org/2000/svg" width="32" height="32" viewBox="0 0 24 24">
    <path d="M 0 0 L 0 24 L 2 24 L 2 22.800781 L 22 22.800781 L 22 24 L 24 24 L 24 0 Z M 23.199219 23.199219 L 22.800781 23.199219 L 22.800781 22 L 1.199219 22 L 1.199219 23.199219 L 0.800781 23.199219 L 0.800781 0.800781 L 23.199219 0.800781 Z M 23.199219 23.199219"/>
    <path d="M 12.398438 21.601562 L 22.800781 21.601562 L 22.800781 1.601562 L 1.199219 1.601562 L 1.199219 21.601562 Z M 22 20.800781 L 12.398438 20.800781 L 12.398438 15.199219 L 22 15.199219 Z M 22 14.398438 L 12.398438 14.398438 L 12.398438 8.800781 L 22 8.800781 Z M 12.398438 2.398438 L 22 2.398438 L 22 8 L 12.398438 8 Z M 2 2.398438 L 11.601562 2.398438 L 11.601562 8 L 2 8 Z M 2 8.800781 L 11.601562 8.800781 L 11.601562 14.398438 L 2 14.398438 Z M 2 20.800781 L 2 15.199219 L 11.601562 15.199219 L 11.601562 20.800781 Z M 2 20.800781"/>
</svg>

<svg xmlns="http://www.w3.org/2000/svg" width="32" height="32" viewBox="0 0 24 24">
    <path d="M0 0v24h2v-1.2h20V24h2V0zm23.2 23.2h-.4V22H1.2v1.2H.8V.8h22.4zm0 0"/>
    <path d="M12.398 21.602h10.403v-20H1.199v20zM22 20.8h-9.602v-5.602H22zm0-6.403h-9.602V8.801H22zm-9.602-12H22V8h-9.602zM2 2.398h9.602V8H2zm0 6.403h9.602v5.597H2zm0 12v-5.602h9.602v5.602zm0 0"/>
</svg>
